X:26
T:Huckle and Buff
B:Walsh
M:3/2
L:1/8
N:
K:F
fgag f2 F2 f3 f| gaba g2 G2 g3 g |agab agfe dcBA| BAGF G2 e2 f4::\
ABcd cAfd cAGF|ABcd cagf gedc|ABcd cAfd cAGF|EFGA GEcA GEDC|fgag f2 F2 f3 f|\
gaba g2 G2 g3 g|agab agfe dcBA|BAGF G2 e2 f3 _e| dfdB dfbf dfdB|\
AcAF Acfc AcAF| EGEC EGcG EGEC|EFGA G2 ^B2 c4:|
